icons/.icons/Papirus-Light/24x24/panel/zim-panel.svg

<svg xmlns="http://www.w3.org/2000/svg" width="24" height="24" version="1.1">
 <defs>
  <style id="current-color-scheme" type="text/css">
   .ColorScheme-Text { color:#444444; } .ColorScheme-Highlight { color:#4285f4; }
  </style>
 </defs>
 <path style="opacity:0.3;fill:currentColor" class="ColorScheme-Text" d="m 12.000964,4 c -4.4319999,0 -7.9999999,3.568 -7.9999999,8 0,0.836914 0.1289835,1.643302 0.3652344,2.400391 0.00427,-0.01736 0.00533,-0.03544 0.00977,-0.05274 0.1448857,-0.564818 0.4243066,-1.150295 0.9238277,-1.613276 0.5874148,-0.544263 1.2707705,-0.691504 1.9785157,-0.703125 0.1171279,-0.247514 0.2110563,-0.510942 0.4453124,-0.683594 0.097936,-0.07218 0.2055054,-0.0427 0.3105469,-0.08984 0.012974,-0.02719 0.00592,-0.02517 0.021484,-0.05469 C 8.3391028,10.665601 8.7093306,10.259906 9.2275266,9.6757812 9.9345355,8.8787995 11.03244,8.1397273 12.049792,7.4785156 13.067624,6.8168902 13.858159,6.3522199 14.182605,6.1855469 14.078498,6.2394355 14.495991,6.0065837 14.897448,5.78125 15.23125,5.5938912 15.665258,5.3608521 16.09862,5.1328125 14.900363,4.418523 13.502909,4 12.000964,4 Z m 7.365234,4.8652343 C 19.073953,9.259055 18.777009,9.6506334 18.54198,9.9511719 18.266299,10.303624 18.006227,10.635382 18.040026,10.589844 l 0,0.002 c -0.214357,0.287799 -0.799545,0.987526 -1.615234,1.876956 -0.814177,0.887781 -1.721787,1.846335 -2.626953,2.414062 -0.596127,0.373793 -1.04655,0.493196 -1.52539,0.675782 -0.07585,0.423682 -0.263229,0.823827 -0.634766,1.097656 -0.229581,0.169202 -0.508727,0.153432 -0.775391,0.195312 -0.125208,0.453679 -0.343169,0.907406 -0.736328,1.308594 l -0.01953,0.01953 -0.01953,0.01953 c -0.5422766,0.496323 -1.2053448,0.719805 -1.8222655,0.791015 l -0.054687,0.0059 -0.056641,0 c -0.015928,6.8e-5 -0.025276,-4.8e-5 -0.041016,0 C 9.2623984,19.634361 10.587302,20 12.000964,20 c 4.432,0 8,-3.568 8,-8 0,-1.114223 -0.226708,-2.1727251 -0.634766,-3.1347657 z"/>
 <path style="fill:currentColor;fill-rule:evenodd" class="ColorScheme-Text" d="m 19.174792,5.0078125 c -0.308799,-0.034509 -0.602617,0.082641 -0.884766,0.1816406 l 0,0.00391 c -0.441647,0.1726001 -0.96777,0.4269594 -1.484374,0.6933594 -0.516607,0.2664 -1.022629,0.543725 -1.417969,0.765625 -0.39534,0.2219 -0.691808,0.393775 -0.746094,0.421875 -0.175275,0.09 -1.05385,0.5966875 -2.046875,1.2421875 -0.993024,0.6453962 -2.075077,1.4101337 -2.6191405,2.023434 -0.2693333,0.3036 -0.4799237,0.543528 -0.6523438,0.761719 0.3379001,0.109938 0.6464834,0.317035 0.8691403,0.61914 l 1.81836,2.466797 c 0.100623,0.136527 0.171308,0.286022 0.226562,0.439453 0.289536,-0.145687 0.603961,-0.325096 1.029297,-0.591797 0.699448,-0.4387 1.627031,-1.375487 2.421875,-2.242187 0.794844,-0.8667 1.431891,-1.641828 1.548828,-1.7988284 0.03934,-0.053 0.245458,-0.3103031 0.517578,-0.6582031 0.27212,-0.348 0.615435,-0.7953063 0.951172,-1.2539063 0.335737,-0.4587 0.663028,-0.9290781 0.904297,-1.3300781 0.120634,-0.2006 0.220337,-0.3831687 0.289063,-0.5429688 0.06873,-0.1596998 0.116849,-0.2900937 0.09766,-0.4335937 -0.03191,-0.2386 -0.152077,-0.3787719 -0.222656,-0.4511719 -0.0016,-0.0014 -0.0095,-0.011719 -0.0098,-0.011719 C 19.680516,5.2112997 19.58679,5.1475091 19.489215,5.099609 19.38288,5.048259 19.277695,5.019315 19.174762,5.007812 Z M 8.8857297,12.009766 c -0.193598,-0.02931 -0.3975555,0.01669 -0.5683594,0.142578 -0.3416077,0.251771 -0.4138809,0.728705 -0.1621093,1.070312 l 1.8164062,2.466797 c 0.2517718,0.341608 0.7306578,0.413881 1.0722658,0.162109 0.341608,-0.251771 0.413881,-0.728704 0.162109,-1.070312 L 9.3876829,12.314453 C 9.2617971,12.143649 9.0793278,12.039076 8.8857297,12.009766 Z m -1.8476562,1.023437 c -0.4159261,0.06177 -0.8229304,0.217195 -1.0585938,0.435547 -0.3232455,0.2996 -0.5264133,0.704553 -0.6347656,1.126953 -0.1779677,0.6935 -0.189919,1.690434 -0.3261719,2.427734 -0.067677,0.366 -0.376852,0.935629 -0.953125,1.673828 -0.1471888,0.247301 0,0.279297 0,0.279297 0.082616,0.058 0.2331947,-2.03e-4 0.3085938,-0.0332 1.3334972,-1.096603 2.2144041,-0.940568 3.7753906,-0.947268 0.4591565,-0.053 0.9132923,-0.216257 1.2617187,-0.535157 C 9.637504,17.22993 9.7624706,17.027321 9.8525266,16.826172 9.5883733,16.706577 9.3481664,16.52904 9.1669797,16.283203 L 7.3486203,13.816406 C 7.1743618,13.579969 7.0779205,13.309407 7.0380735,13.033203 Z"/>
</svg>

<svg xmlns="http://www.w3.org/2000/svg" width="24" height="24" version="1.1">
 <defs>
  <style id="current-color-scheme" type="text/css">
   .ColorScheme-Text { color:#444444; } .ColorScheme-Highlight { color:#4285f4; } .ColorScheme-NeutralText { color:#ff9800; } .ColorScheme-PositiveText { color:#4caf50; } .ColorScheme-NegativeText { color:#f44336; }
  </style>
 </defs>
 <path style="opacity:0.3;fill:currentColor" class="ColorScheme-Text" d="M 12.001,4 C 7.569,4 4.001,7.568 4.001,12 4.001,12.837 4.1299,13.643 4.3662,14.4 L 4.376,14.348 C 4.5209,13.783 4.8003,13.197 5.2998,12.734 5.8872,12.19 6.5706,12.043 7.2783,12.031 7.3954,11.784 7.4894,11.52 7.7236,11.348 7.8216,11.275 7.9291,11.305 8.0342,11.258 L 8.0557,11.203 C 8.3391,10.666 8.7093,10.26 9.2275,9.6758 9.9345,8.8788 11.032,8.1397 12.05,7.4785 13.068,6.8169 16.099,5.1328 16.099,5.1328 14.9,4.4185 13.503,4 12.001,4 Z M 19.366,8.8652 C 19.366,8.8652 17.24,11.579 16.425,12.469 15.611,13.357 14.703,14.315 13.798,14.883 13.202,15.257 12.751,15.376 12.272,15.559 12.197,15.982 12.009,16.382 11.638,16.656 11.408,16.826 11.129,16.81 10.862,16.852 10.737,17.305 10.519,17.759 10.126,18.16 L 10.106,18.18 10.087,18.199 C 9.5446,18.696 8.8816,18.919 8.2646,18.99 L 8.1123,18.996 C 9.2624,19.634 10.587,20 12.001,20 16.433,20 20.001,16.432 20.001,12 20.001,10.886 19.774,9.8273 19.366,8.8652 Z"/>
 <path style="fill:currentColor" class="ColorScheme-Text" d="M 19.175,5.0078 C 18.866,4.9733 18.572,5.0905 18.29,5.1895 18.29,5.1895 17.322,5.6203 16.806,5.8867 16.289,6.1531 15.783,6.4304 15.388,6.6523 14.992,6.8742 13.588,7.6709 12.595,8.3164 11.602,8.9618 10.52,9.7265 9.9756,10.34 9.7062,10.643 9.4956,10.883 9.3232,11.102 9.6611,11.212 9.9697,11.419 10.192,11.721 L 12.011,14.188 C 12.111,14.324 12.182,14.474 12.237,14.627 12.527,14.481 12.841,14.302 13.267,14.035 13.966,13.596 14.894,12.66 15.688,11.793 16.483,10.926 17.483,9.6838 17.755,9.3359 18.027,8.9879 18.37,8.5406 18.706,8.082 19.042,7.6233 19.369,7.153 19.61,6.752 19.731,6.5514 19.831,6.3688 19.899,6.209 19.968,6.0493 20.016,5.9189 19.997,5.7754 19.965,5.5368 19.845,5.3966 19.774,5.3242 L 19.765,5.3125 C 19.681,5.2113 19.587,5.1475 19.489,5.0996 19.383,5.0483 19.278,5.0193 19.175,5.0078 Z M 8.8857,12.01 C 8.6921,11.98 8.4882,12.026 8.3174,12.152 7.9758,12.404 7.9035,12.881 8.1553,13.223 L 9.9717,15.689 C 10.223,16.031 10.702,16.103 11.044,15.852 11.386,15.6 11.458,15.123 11.206,14.781 L 9.3877,12.314 C 9.2618,12.144 9.0793,12.039 8.8857,12.01 Z M 7.0381,13.033 C 6.6221,13.095 6.2151,13.25 5.9795,13.469 5.6562,13.768 5.4531,14.173 5.3447,14.596 5.1667,15.289 5.1548,16.286 5.0185,17.023 4.9509,17.389 4.6417,17.959 4.0654,18.697 3.9182,18.945 4.0654,18.977 4.0654,18.977 4.148,19.035 4.2986,18.976 4.374,18.943 5.7075,17.847 6.5884,18.003 8.1494,17.996 8.6086,17.943 9.0627,17.78 9.4111,17.461 9.6375,17.23 9.7625,17.027 9.8525,16.826 9.5884,16.707 9.3482,16.529 9.167,16.283 L 7.3486,13.816 C 7.1744,13.58 7.0779,13.309 7.0381,13.033 Z"/>
</svg>
